resources/themes/lulzbot/icons/viewmode.svg

<?xml version="1.0" encoding="UTF-8" standalone="no"?>
<svg
   xmlns:dc="http://purl.org/dc/elements/1.1/"
   xmlns:cc="http://creativecommons.org/ns#"
   xmlns:rdf="http://www.w3.org/1999/02/22-rdf-syntax-ns#"
   xmlns:svg="http://www.w3.org/2000/svg"
   xmlns="http://www.w3.org/2000/svg"
   version="1.1"
   id="svg38008"
   viewBox="0 0 283.46457 283.46457"
   height="80mm"
   width="80mm">
  <defs
     id="defs38010" />
  <metadata
     id="metadata38013">
    <rdf:RDF>
      <cc:Work
         rdf:about="">
        <dc:format>image/svg+xml</dc:format>
        <dc:type
           rdf:resource="http://purl.org/dc/dcmitype/StillImage" />
        <dc:title></dc:title>
      </cc:Work>
    </rdf:RDF>
  </metadata>
  <g
     transform="matrix(0.86205543,0,0,0.86205543,20.1112,-643.5973)"
     id="layer1">
    <g
       transform="matrix(2.7207101,0,0,2.7207101,-2622.8574,-2803.7709)"
       id="g37977">
      <g
         id="g37944"
         transform="translate(-166,-1.5)">
        <g
           transform="matrix(0.90977681,0,0,0.90977681,72.337038,127.90864)"
           id="g37917">
          <path
             id="rect37864"
             transform="matrix(0.4040014,0,0,0.4040014,1162.5896,1304.4184)"
             d="m 139.13477,76.886719 c -2.6729,-0.01826 -5.29185,0.02115 -7.85938,0.117187 -41.138496,2.561821 -64.9693,13.768203 -86.474609,29.332034 -13.447926,11.042 -25.186111,20.58524 -29.109375,37.16797 0.963676,12.07424 13.653646,23.06764 21.550782,29.16992 16.788685,12.68749 42.127491,24.1868 97.726562,28.6289 59.73074,4.77267 94.24136,-15.45068 138.23633,-46.56445 l 2.6875,-1.89844 -2.54297,-2.08984 C 236.2783,120.28158 225.43334,81.055785 147.3125,77.121094 c -2.77893,-0.139981 -5.50484,-0.216112 -8.17773,-0.234375 z m -6.89649,14.835937 c 2.13851,0.03221 4.30316,0.094 6.51367,0.205078 0.32925,0.01658 0.63778,0.04113 0.96485,0.05859 l 0.41015,18.591792 a 25.900214,25.900214 0 0 0 -2.48242,0.37305 l -5.40625,-19.228514 z m -6.05078,0.0098 5.48828,16.970698 a 11.66141,11.66141 0 0 1 5.35352,10.75196 11.66141,11.66141 0 0 1 -12.55274,10.69531 11.66141,11.66141 0 0 1 -10.16211,-8.0332 l -20.566403,-8.63281 c 1.431908,-2.93442 3.120321,-5.721 5.041015,-8.32618 l 15.099608,11.54883 a 11.66141,11.66141 0 0 1 2.16211,-5.13476 l -13.38867,-11.08594 c 2.21643,-2.389474 4.64228,-4.584512 7.25781,-6.539064 l 10.18164,14.208984 a 11.66141,11.66141 0 0 1 5.60742,-1.27344 l -9.66406,-14.650388 c 2.32272,-0.186924 4.68843,-0.332326 7.10938,-0.421875 1.00028,-0.0371 2.01608,-0.05853 3.0332,-0.07813 z m 19.23242,0.603516 c 2.62311,0.18861 5.15849,0.412637 7.63867,0.660156 L 147.9043,110.9375 a 25.900214,25.900214 0 0 0 -2.78711,-0.40039 l 0.30273,-18.201172 z m -39.08008,0.982421 C 93.689559,103.67412 85.609375,119.40798 85.609375,137.01953 c 0,31.16301 25.292065,56.45508 56.455075,56.45508 31.16302,0 56.45508,-25.29207 56.45508,-56.45508 0,-15.09383 -5.94548,-28.79925 -15.60547,-38.931639 40.25174,10.283739 57.31069,31.335289 84.72656,54.345699 -42.32064,29.81246 -71.33023,47.22408 -128.61914,42.64649 C 84.083282,190.69076 54.4617,177.37368 38.646484,165.42188 31.477141,159.42187 24.341989,153.05394 21.191406,144.19531 21.971978,142.83768 29.3922,130.17735 47.189453,117.01562 60.837693,106.92263 80.160289,97.093809 106.33984,93.318359 Z m 52.52344,0.320313 c 3.18055,0.393029 6.22053,0.845721 9.16992,1.33789 l -12.5957,18.781248 a 25.900214,25.900214 0 0 0 -2.75977,-1.34961 l 6.18555,-18.769528 z m 15.57617,2.509766 c 1.12802,0.227635 2.22789,0.468183 3.32227,0.710937 1.96823,1.750626 3.80926,3.642425 5.50195,5.662105 l -21.3164,16.4629 a 25.900214,25.900214 0 0 0 -2.40821,-2.37305 L 174.43945,96.148438 Z M 186.875,107.35938 c 1.75094,2.64121 3.27639,5.44532 4.54492,8.38671 l -25.24804,9.59961 a 25.900214,25.900214 0 0 0 -1.24805,-2.34765 L 186.875,107.35938 Z m -95.472656,11.73242 26.517576,9.9414 a 25.900214,25.900214 0 0 0 -0.63672,2.63672 l -28.343747,-2.75976 c 0.512262,-3.38893 1.348906,-6.66952 2.462891,-9.81836 z m 102.091796,2.33008 c 1.10374,3.64773 1.82078,7.46145 2.125,11.39257 l -27.14258,0.84375 a 25.900214,25.900214 0 0 0 -0.6289,-3.60351 l 25.64648,-8.63281 z m -105.111328,13.54687 28.472658,1.66602 a 25.900214,25.900214 0 0 0 0.18555,2.60546 l -28.128911,5.67969 c -0.379483,-2.57867 -0.582031,-5.21573 -0.582031,-7.90039 0,-0.68806 0.02714,-1.36902 0.05273,-2.05078 z m 80.142578,3.68945 27.22656,0.20703 c -0.1203,3.56388 -0.58845,7.03609 -1.36914,10.39063 l -26.31836,-7.54492 a 25.900214,25.900214 0 0 0 0.46094,-3.05274 z m -50.44922,5.45703 a 25.900214,25.900214 0 0 0 0.89258,2.4043 l -25.404297,13.66406 c -1.414408,-2.9583 -2.560853,-6.06888 -3.419922,-9.29687 l 27.931639,-6.77149 z m 48.48633,2.36524 26.12109,8.59375 c -1.02603,2.87915 -2.29221,5.64115 -3.77148,8.26953 L 165.5293,148.61719 a 25.900214,25.900214 0 0 0 1.0332,-2.13672 z m -45.19922,4.41015 a 25.900214,25.900214 0 0 0 1.5586,2.0586 l -20.375,20.48242 c -2.24723,-2.43784 -4.267918,-5.08527 -6.037114,-7.9082 l 24.853514,-14.63282 z m 41.37305,1.87305 22.90234,15.69336 c -1.88991,2.61589 -4.0081,5.05311 -6.32812,7.28516 l -18.33008,-21.05078 a 25.900214,25.900214 0 0 0 1.75586,-1.92774 z m -36.25977,3.68164 a 25.900214,25.900214 0 0 0 2.16797,1.57227 l -13.45312,25.53515 c -2.94115,-1.7012 -5.70372,-3.67209 -8.25782,-5.88085 l 19.54297,-21.22657 z m 30.62696,1.4043 17.59765,21.85742 c -2.43118,1.86112 -5.02619,3.51561 -7.75976,4.94531 l -11.85157,-25.5957 a 25.900214,25.900214 0 0 0 2.01368,-1.20703 z m -24.03321,2.47461 a 25.900214,25.900214 0 0 0 2.60547,0.88867 l -5.28125,28.25586 c -3.38245,-0.74845 -6.64476,-1.80981 -9.75391,-3.16211 l 12.42969,-25.98242 z m 17.41797,0.67969 10.9043,26.15625 c -2.88036,1.11009 -5.87697,1.98414 -8.97266,2.58789 l -4.22851,-28.14063 a 25.900214,25.900214 0 0 0 2.29687,-0.60351 z m -9.90234,1.10742 a 25.900214,25.900214 0 0 0 2.15625,0.10742 25.900214,25.900214 0 0 0 0.49023,-0.0176 l 3.14844,28.36524 c -1.42558,0.11327 -2.86153,0.1875 -4.31641,0.1875 -1.90897,0 -3.79302,-0.10302 -5.65039,-0.29688 l 4.17188,-28.3457 z"
             style="color:#000000;font-style:normal;font-variant:normal;font-weight:normal;font-stretch:normal;font-size:medium;line-height:normal;font-family:sans-serif;text-indent:0;text-align:start;text-decoration:none;text-decoration-line:none;text-decoration-style:solid;text-decoration-color:#000000;letter-spacing:normal;word-spacing:normal;text-transform:none;direction:ltr;block-progression:tb;writing-mode:lr-tb;baseline-shift:baseline;text-anchor:start;white-space:normal;clip-rule:nonzero;display:inline;overflow:visible;visibility:visible;opacity:1;isolation:auto;mix-blend-mode:normal;color-interpolation:sRGB;color-interpolation-filters:linearRGB;solid-color:#000000;solid-opacity:1;fill:#000000;fill-opacity:1;fill-rule:nonzero;stroke:none;stroke-width:2;stroke-linecap:butt;stroke-linejoin:miter;stroke-miterlimit:10;stroke-dasharray:none;stroke-dashoffset:825.36413574;stroke-opacity:1;color-rendering:auto;image-rendering:auto;shape-rendering:auto;text-rendering:auto;enable-background:accumulate" />
          <path
             style="color:#000000;font-style:normal;font-variant:normal;font-weight:normal;font-stretch:normal;font-size:medium;line-height:normal;font-family:sans-serif;text-indent:0;text-align:start;text-decoration:none;text-decoration-line:none;text-decoration-style:solid;text-decoration-color:#000000;letter-spacing:normal;word-spacing:normal;text-transform:none;direction:ltr;block-progression:tb;writing-mode:lr-tb;baseline-shift:baseline;text-anchor:start;white-space:normal;clip-rule:nonzero;display:inline;overflow:visible;visibility:visible;opacity:1;isolation:auto;mix-blend-mode:normal;color-interpolation:sRGB;color-interpolation-filters:linearRGB;solid-color:#000000;solid-opacity:1;fill:#000000;fill-opacity:1;fill-rule:nonzero;stroke:none;stroke-width:2;stroke-linecap:butt;stroke-linejoin:miter;stroke-miterlimit:10;stroke-dasharray:none;stroke-dashoffset:825.36413574;stroke-opacity:1;color-rendering:auto;image-rendering:auto;shape-rendering:auto;text-rendering:auto;enable-background:accumulate"
             d="m 1231.9044,1340.6578 -8.8088,13.1344 1.5214,1.0697 9.3084,-12.7832 z"
             id="path37877" />
        </g>
      </g>
    </g>
  </g>
</svg>

<?xml version="1.0" encoding="UTF-8" standalone="no"?>
<svg
   xmlns:dc="http://purl.org/dc/elements/1.1/"
   xmlns:cc="http://creativecommons.org/ns#"
   xmlns:rdf="http://www.w3.org/1999/02/22-rdf-syntax-ns#"
   xmlns:svg="http://www.w3.org/2000/svg"
   xmlns="http://www.w3.org/2000/svg"
   width="80mm"
   height="80mm"
   viewBox="0 0 283.46457 283.46457"
   id="svg38008"
   version="1.1">
  <defs
     id="defs38010" />
  <metadata
     id="metadata38013">
    <rdf:RDF>
      <cc:Work
         rdf:about="">
        <dc:format>image/svg+xml</dc:format>
        <dc:type
           rdf:resource="http://purl.org/dc/dcmitype/StillImage" />
        <dc:title></dc:title>
      </cc:Work>
    </rdf:RDF>
  </metadata>
  <path
     id="path8073"
     d="m 17.96364,143.02157 c 0,0 25.312401,-39.60166 58.381828,-47.35869 C 109.4149,87.905854 158.8149,80.965356 188.20995,91.988499 217.605,103.01164 248.22484,130.77363 248.22484,130.77363 l 22.86281,21.63802 -20.41322,14.69752 c 0,0 -41.64299,28.57852 -76.34547,30.21158 -34.70249,1.63306 -85.327291,0.40826 -126.562009,-23.27108 C 6.5322326,150.37033 17.96364,143.02157 17.96364,143.02157 Z"
     style="opacity:1;fill:#ffffff;fill-opacity:1;fill-rule:nonzero;stroke:none;stroke-width:1.79999995;stroke-linecap:butt;stroke-linejoin:miter;stroke-miterlimit:10;stroke-dasharray:none;stroke-dashoffset:825.36413574;stroke-opacity:1" />
  <circle
     r="54.561771"
     cy="136.52309"
     cx="141.74513"
     id="path8071"
     style="opacity:1;fill:#c1d82f;fill-opacity:1;fill-rule:nonzero;stroke:none;stroke-width:1.79999995;stroke-linecap:butt;stroke-linejoin:miter;stroke-miterlimit:10;stroke-dasharray:none;stroke-dashoffset:825.36413574;stroke-opacity:1" />
  <g
     id="layer1"
     transform="translate(0,-768.89763)">
    <g
       id="g37977"
       transform="matrix(2.7207101,0,0,2.7207101,-2622.8574,-2803.7709)">
      <g
         transform="translate(-166,-1.5)"
         id="g37944">
        <g
           id="g37917"
           transform="matrix(0.90977681,0,0,0.90977681,72.337038,127.90864)">
          <path
             style="color:#000000;font-style:normal;font-variant:normal;font-weight:normal;font-stretch:normal;font-size:medium;line-height:normal;font-family:sans-serif;text-indent:0;text-align:start;text-decoration:none;text-decoration-line:none;text-decoration-style:solid;text-decoration-color:#000000;letter-spacing:normal;word-spacing:normal;text-transform:none;direction:ltr;block-progression:tb;writing-mode:lr-tb;baseline-shift:baseline;text-anchor:start;white-space:normal;clip-rule:nonzero;display:inline;overflow:visible;visibility:visible;opacity:1;isolation:auto;mix-blend-mode:normal;color-interpolation:sRGB;color-interpolation-filters:linearRGB;solid-color:#000000;solid-opacity:1;fill:#000000;fill-opacity:1;fill-rule:nonzero;stroke:none;stroke-width:2;stroke-linecap:butt;stroke-linejoin:miter;stroke-miterlimit:10;stroke-dasharray:none;stroke-dashoffset:825.36413574;stroke-opacity:1;color-rendering:auto;image-rendering:auto;shape-rendering:auto;text-rendering:auto;enable-background:accumulate"
             d="M 139.13477 76.886719 C 136.46187 76.868456 133.84292 76.907865 131.27539 77.003906 C 90.136894 79.565727 66.30609 90.772109 44.800781 106.33594 C 31.352855 117.37794 19.61467 126.92118 15.691406 143.50391 C 16.655082 155.57815 29.345052 166.57155 37.242188 172.67383 C 54.030873 185.36132 79.369679 196.86063 134.96875 201.30273 C 194.69949 206.0754 229.21011 185.85205 273.20508 154.73828 L 275.89258 152.83984 L 273.34961 150.75 C 236.2783 120.28158 225.43334 81.055785 147.3125 77.121094 C 144.53357 76.981113 141.80766 76.904982 139.13477 76.886719 z M 132.23828 91.722656 C 134.37679 91.754862 136.54144 91.816653 138.75195 91.927734 C 139.0812 91.944317 139.38973 91.968864 139.7168 91.986328 L 140.12695 110.57812 A 25.900214 25.900214 0 0 0 137.64453 110.95117 L 132.23828 91.722656 z M 126.1875 91.732422 L 131.67578 108.70312 A 11.66141 11.66141 0 0 1 137.0293 119.45508 A 11.66141 11.66141 0 0 1 124.47656 130.15039 A 11.66141 11.66141 0 0 1 114.31445 122.11719 L 93.748047 113.48438 C 95.179955 110.54996 96.868368 107.76338 98.789062 105.1582 L 113.88867 116.70703 A 11.66141 11.66141 0 0 1 116.05078 111.57227 L 102.66211 100.48633 C 104.87854 98.096856 107.30439 95.901818 109.91992 93.947266 L 120.10156 108.15625 A 11.66141 11.66141 0 0 1 125.70898 106.88281 L 116.04492 92.232422 C 118.36764 92.045498 120.73335 91.900096 123.1543 91.810547 C 124.15458 91.773445 125.17038 91.752016 126.1875 91.732422 z M 145.41992 92.335938 C 148.04303 92.524548 150.57841 92.748575 153.05859 92.996094 L 147.9043 110.9375 A 25.900214 25.900214 0 0 0 145.11719 110.53711 L 145.41992 92.335938 z M 106.33984 93.318359 C 93.689559 103.67412 85.609375 119.40798 85.609375 137.01953 C 85.609375 168.18254 110.90144 193.47461 142.06445 193.47461 C 173.22747 193.47461 198.51953 168.18254 198.51953 137.01953 C 198.51953 121.9257 192.57405 108.22028 182.91406 98.087891 C 223.1658 108.37163 240.22475 129.42318 267.64062 152.43359 C 225.31998 182.24605 196.31039 199.65767 139.02148 195.08008 C 84.083282 190.69076 54.4617 177.37368 38.646484 165.42188 C 31.477141 159.42187 24.341989 153.05394 21.191406 144.19531 C 21.971978 142.83768 29.3922 130.17735 47.189453 117.01562 C 60.837693 106.92263 80.160289 97.093809 106.33984 93.318359 z M 158.86328 93.638672 C 162.04383 94.031701 165.08381 94.484393 168.0332 94.976562 L 155.4375 113.75781 A 25.900214 25.900214 0 0 0 152.67773 112.4082 L 158.86328 93.638672 z M 174.43945 96.148438 C 175.56747 96.376073 176.66734 96.616621 177.76172 96.859375 C 179.72995 98.610001 181.57098 100.5018 183.26367 102.52148 L 161.94727 118.98438 A 25.900214 25.900214 0 0 0 159.53906 116.61133 L 174.43945 96.148438 z M 186.875 107.35938 C 188.62594 110.00059 190.15139 112.8047 191.41992 115.74609 L 166.17188 125.3457 A 25.900214 25.900214 0 0 0 164.92383 122.99805 L 186.875 107.35938 z M 91.402344 119.0918 L 117.91992 129.0332 A 25.900214 25.900214 0 0 0 117.2832 131.66992 L 88.939453 128.91016 C 89.451715 125.52123 90.288359 122.24064 91.402344 119.0918 z M 193.49414 121.42188 C 194.59788 125.06961 195.31492 128.88333 195.61914 132.81445 L 168.47656 133.6582 A 25.900214 25.900214 0 0 0 167.84766 130.05469 L 193.49414 121.42188 z M 88.382812 134.96875 L 116.85547 136.63477 A 25.900214 25.900214 0 0 0 117.04102 139.24023 L 88.912109 144.91992 C 88.532626 142.34125 88.330078 139.70419 88.330078 137.01953 C 88.330078 136.33147 88.357222 135.65051 88.382812 134.96875 z M 168.52539 138.6582 L 195.75195 138.86523 C 195.63165 142.42911 195.1635 145.90132 194.38281 149.25586 L 168.06445 141.71094 A 25.900214 25.900214 0 0 0 168.52539 138.6582 z M 118.07617 144.11523 A 25.900214 25.900214 0 0 0 118.96875 146.51953 L 93.564453 160.18359 C 92.150045 157.22529 91.0036 154.11471 90.144531 150.88672 L 118.07617 144.11523 z M 166.5625 146.48047 L 192.68359 155.07422 C 191.65756 157.95337 190.39138 160.71537 188.91211 163.34375 L 165.5293 148.61719 A 25.900214 25.900214 0 0 0 166.5625 146.48047 z M 121.36328 150.89062 A 25.900214 25.900214 0 0 0 122.92188 152.94922 L 102.54688 173.43164 C 100.29965 170.9938 98.278962 168.34637 96.509766 165.52344 L 121.36328 150.89062 z M 162.73633 152.76367 L 185.63867 168.45703 C 183.74876 171.07292 181.63057 173.51014 179.31055 175.74219 L 160.98047 154.69141 A 25.900214 25.900214 0 0 0 162.73633 152.76367 z M 126.47656 156.44531 A 25.900214 25.900214 0 0 0 128.64453 158.01758 L 115.19141 183.55273 C 112.25026 181.85153 109.48769 179.88064 106.93359 177.67188 L 126.47656 156.44531 z M 157.10352 157.84961 L 174.70117 179.70703 C 172.26999 181.56815 169.67498 183.22264 166.94141 184.65234 L 155.08984 159.05664 A 25.900214 25.900214 0 0 0 157.10352 157.84961 z M 133.07031 160.32422 A 25.900214 25.900214 0 0 0 135.67578 161.21289 L 130.39453 189.46875 C 127.01208 188.7203 123.74977 187.65894 120.64062 186.30664 L 133.07031 160.32422 z M 150.48828 161.00391 L 161.39258 187.16016 C 158.51222 188.27025 155.51561 189.1443 152.41992 189.74805 L 148.19141 161.60742 A 25.900214 25.900214 0 0 0 150.48828 161.00391 z M 140.58594 162.11133 A 25.900214 25.900214 0 0 0 142.74219 162.21875 A 25.900214 25.900214 0 0 0 143.23242 162.20117 L 146.38086 190.56641 C 144.95528 190.67968 143.51933 190.75391 142.06445 190.75391 C 140.15548 190.75391 138.27143 190.65089 136.41406 190.45703 L 140.58594 162.11133 z "
             transform="matrix(0.4040014,0,0,0.4040014,1162.5896,1304.4184)"
             id="rect37864" />
          <path
             id="path37877"
             d="m 1231.9044,1340.6578 -8.8088,13.1344 1.5214,1.0697 9.3084,-12.7832 z"
             style="color:#000000;font-style:normal;font-variant:normal;font-weight:normal;font-stretch:normal;font-size:medium;line-height:normal;font-family:sans-serif;text-indent:0;text-align:start;text-decoration:none;text-decoration-line:none;text-decoration-style:solid;text-decoration-color:#000000;letter-spacing:normal;word-spacing:normal;text-transform:none;direction:ltr;block-progression:tb;writing-mode:lr-tb;baseline-shift:baseline;text-anchor:start;white-space:normal;clip-rule:nonzero;display:inline;overflow:visible;visibility:visible;opacity:1;isolation:auto;mix-blend-mode:normal;color-interpolation:sRGB;color-interpolation-filters:linearRGB;solid-color:#000000;solid-opacity:1;fill:#000000;fill-opacity:1;fill-rule:nonzero;stroke:none;stroke-width:2;stroke-linecap:butt;stroke-linejoin:miter;stroke-miterlimit:10;stroke-dasharray:none;stroke-dashoffset:825.36413574;stroke-opacity:1;color-rendering:auto;image-rendering:auto;shape-rendering:auto;text-rendering:auto;enable-background:accumulate" />
        </g>
      </g>
    </g>
  </g>
  <circle
     r="12.043804"
     cy="118.48217"
     cx="125.71045"
     id="path8075"
     style="opacity:1;fill:#ffffff;fill-opacity:1;fill-rule:nonzero;stroke:none;stroke-width:1.79999995;stroke-linecap:butt;stroke-linejoin:miter;stroke-miterlimit:10;stroke-dasharray:none;stroke-dashoffset:825.36413574;stroke-opacity:1" />
</svg>
